X:214209050849957
T:10-3-9-3-9-10-5-2-2-8-9-10-4-4-8-2
%%setfont-1 Courier-Bold 8
T:$1K.516f::98:06:114:63:140:129:159:30:70:155:48:82:73:58:89:14::$0
T:$1Perm. No.: 214209050849957$0
M:3/8
L:1/8
Q:1/8=111
%%staves [1 2]
V:1 clef=treble
V:2 clef=bass
K:C
%1
[V:1]|: cGe |\
[V:2]|: [E,/C,/]G,/[E,/C,/]G,/[E,/C,/]G,/ |\
%2
[V:1] Gce |\
[V:2] [E,2C,2]z |\
%3
[V:1] [dB][dB][dB] |\
[V:2] G,G,G, |\
%4
[V:1] e/c/B/c/G |\
[V:2] C,2z |\
%5
[V:1] AA/d/^f |\
[V:2] [^F,C,][F,C,][A,C,] |\
%6
[V:1] a/g/^f/g/d |\
[V:2] [D,B,,][D,B,,][G,B,,] |\
%7
[V:1] e/g/d/c/B/A/ \
[V:2] C,D,D,, \
%8a
[V:1]|1 [g2d2B2G2]z :|2
[V:2]|1 G,,G,/=F,/E,/D,/ :|2
%8b
[V:1] [g2d2B2G2]z |:\
[V:2] G,,B,/G,/^F,/E,/ |:\
%9
[V:1] ^fa/f/d/f/ |\
[V:2] D,2C, |\
%10
[V:1] g/b/g/d/B/G/ |\
[V:2] [D,2B,,2]z |\
%11
[V:1] ec/e/g/c'/ |\
[V:2] [G,2C,2][E,C,] |\
%12
[V:1] d/B/Gg |\
[V:2] G,2 [D,B,,] & B,,2 x |\
%13
[V:1] gec |\
[V:2] [E,/C,/]G,/[E,/C,/]G,/[E,/C,/]G,/ |\
%14
[V:1] gec |\
[V:2] [E,/C,/]G,/[E,/C,/]G,/[E,/C,/]G,/ |\
%15
[V:1] f/e/dg |\
[V:2] F,/E,/D,G, |\
%16
[V:1] c2z :|]
[V:2] C,G,,C,, :|]
